!!!OTL: Die stolze (schoene) Muellerin
!!!ARE: Europa, Mitteleuropa, Deutschland
!!!SCT: A0043
!!!YEM: Copyright 1995, estate of Helmut Schaffrath.
**kern
*ICvox
*Ivox
!! Mixed meters:  4/2; 6/2
*M4/2
*k[f#]
*e:
{2b
=1
2ccn
2ddn
2ddn
2ee
=2
2ddn
4ccn
4b
2a}
{2b
=3
2ccn
2ddn
2b
4ddn
4ccn
=4
*M6/2
2.b
4a
2.gn
4fn
2e}
{2b
=5
*M4/2
2ccn
2ddn
2ddn
2ee
=6
2ddn
4ccn
4b
2a}
{2b
=7
2ccn
2ddn
2b
4ddn
4ccn
=8
*M6/2
2.b
4a
2.gn
4fn
2e}
{2gn
=9
*M4/2
2ccn
2b
2a
2e
=10
1dn
2cn}
{2gn
=11
2a
2b
2.ddn
4ddn
=12
1ccn
2b}
{2gn
=13
2a
2gn
2fn
2e
=14
1.e}
==
!!!AGN: Romanze, Ballade, Lied
!! Melodie mit geistlicher Parodie von Joh. v. Laufenberg c. 1420 aus der
!!    Strassb. Hs. No. 121 Bl. 54a. Von Boehme taktiert!
!!!ONB: ESAC (Essen Associative Code) Database: ALTDEU
!!!AMT: irregular
!!!AIN: vox
!!!EED: Helmut Schaffrath
!!!EEV: 1.0
*-
